packages/icons/web/v2/pos_24.svg

<svg width="24" height="24" viewBox="0 0 24 24" fill="none" xmlns="http://www.w3.org/2000/svg">
<path d="M10 19C10.5523 19 11 19.4477 11 20C11 20.5523 10.5523 21 10 21H6C5.44772 21 5 20.5523 5 20C5 19.4477 5.44772 19 6 19H10ZM20 12C21.1046 12 22 12.8954 22 14V19C22 20.0357 21.2128 20.887 20.2041 20.9893L20 21H15L14.7959 20.9893C13.8543 20.8938 13.1062 20.1457 13.0107 19.2041L13 19V14C13 12.8954 13.8954 12 15 12H20ZM15 19H20V14H15V19ZM19 18H16V15H19V18ZM18 4C19.6569 4 21 5.34315 21 7V10H19V7C19 6.44772 18.5523 6 18 6H5C4.44772 6 4 6.44772 4 7V14C4 14.5523 4.44772 15 5 15H11V17H5C3.34315 17 2 15.6569 2 14V7C2 5.34315 3.34315 4 5 4H18Z" fill="currentColor"/>
</svg>

<svg xmlns="http://www.w3.org/2000/svg" width="24" height="24" fill="none" viewBox="0 0 24 24">
    <path fill="currentColor" d="M10 19a1 1 0 1 1 0 2H6a1 1 0 1 1 0-2zm10-7a2 2 0 0 1 2 2v5a2 2 0 0 1-1.796 1.99L20 21h-5l-.204-.01a2 2 0 0 1-1.785-1.786L13 19v-5a2 2 0 0 1 2-2zm-5 7h5v-5h-5zm4-1h-3v-3h3zM18 4a3 3 0 0 1 3 3v3h-2V7a1 1 0 0 0-1-1H5a1 1 0 0 0-1 1v7a1 1 0 0 0 1 1h6v2H5a3 3 0 0 1-3-3V7a3 3 0 0 1 3-3z"/>
</svg>
